app/assets/images/twemoji/thumb-up.svg

<svg width="24" height="24" viewBox="0 0 24 24" fill="none" xmlns="http://www.w3.org/2000/svg">
<path d="M21.42 11.9533C21.42 11.6739 21.3533 11.4117 21.2417 11.1733C20.4967 8.77 17.0089 8.94555 12.0478 8.82833C11.2183 8.80889 11.6928 7.82944 11.9839 5.67944C12.1733 4.28111 11.2717 2.13389 9.75611 2.13389C7.25722 2.13389 9.66111 4.105 7.45167 8.97944C6.27111 11.5839 3.63222 10.125 3.63222 12.7411V18.6961C3.63222 19.7144 3.73222 20.6933 5.16444 20.8544C6.55278 21.0106 6.24055 22 8.24333 22H18.2678C19.2889 22 20.1194 21.1689 20.1194 20.1478C20.1194 19.7244 19.9711 19.3389 19.7317 19.0267C20.2983 18.7094 20.6872 18.1106 20.6872 17.4161C20.6872 16.9939 20.5394 16.6083 20.3006 16.2967C20.8689 15.98 21.2589 15.3806 21.2589 14.685C21.2589 14.18 21.0544 13.7222 20.725 13.3872C21.1456 13.0478 21.42 12.5344 21.42 11.9533V11.9533Z" fill="#FFDB5E"/>
<path d="M14.7889 13.805H19.5689C20.2189 13.805 20.8289 13.4572 21.1611 12.8978C21.2978 12.6672 21.2217 12.3689 20.9906 12.2317C20.76 12.0944 20.4617 12.1717 20.3244 12.4022C20.1672 12.6683 19.8767 12.8328 19.5683 12.8328H14.6739C14.1889 12.8328 13.7944 12.4383 13.7944 11.9533C13.7944 11.4683 14.1889 11.0739 14.6739 11.0739H17.9444C18.2128 11.0739 18.4306 10.8561 18.4306 10.5878C18.4306 10.3194 18.2128 10.1017 17.9444 10.1017H14.6733C13.6522 10.1017 12.8217 10.9322 12.8217 11.9533C12.8217 12.5228 13.0856 13.0267 13.4911 13.3667C13.1494 13.7028 12.9367 14.1694 12.9367 14.685C12.9367 15.2561 13.2022 15.7617 13.61 16.1011C13.2706 16.4367 13.06 16.9017 13.06 17.4161C13.06 18.0383 13.3706 18.5872 13.8428 18.9233C13.5517 19.2506 13.3694 19.6767 13.3694 20.1478C13.3694 21.1689 14.2 21.9994 15.2211 21.9994H18.2678C18.9178 21.9994 19.5283 21.6522 19.8606 21.0928C19.9978 20.8622 19.9217 20.5639 19.6911 20.4267C19.46 20.2906 19.1617 20.3656 19.025 20.5961C18.8667 20.8622 18.5761 21.0272 18.2678 21.0272H15.2211C14.7361 21.0272 14.3417 20.6328 14.3417 20.1478C14.3417 19.6628 14.7361 19.2683 15.2211 19.2683H18.8356C19.4856 19.2683 20.0967 18.9206 20.4283 18.3611C20.5656 18.13 20.4894 17.8317 20.2589 17.695C20.0261 17.5556 19.7289 17.6339 19.5928 17.8644C19.4322 18.135 19.1489 18.2961 18.8356 18.2961H14.9117C14.4267 18.2961 14.0322 17.9011 14.0322 17.4161C14.0322 16.9311 14.4267 16.5367 14.9117 16.5367H19.4067C20.0567 16.5367 20.6672 16.1894 20.9994 15.63C21.1367 15.3994 21.0606 15.1011 20.83 14.9639C20.5983 14.8272 20.3006 14.9028 20.1639 15.1333C20.0033 15.4033 19.72 15.5644 19.4067 15.5644H14.7889C14.3039 15.5644 13.9094 15.17 13.9094 14.685C13.9094 14.2 14.3033 13.805 14.7889 13.805V13.805Z" fill="#EE9547"/>
</svg>

<svg width="24" height="24" viewBox="0 0 24 24" fill="none" xmlns="http://www.w3.org/2000/svg">
    <path d="M21.42 11.953c0-.28-.067-.541-.178-.78-.745-2.403-4.233-2.227-9.194-2.345-.83-.02-.355-.999-.064-3.149.19-1.398-.712-3.545-2.228-3.545-2.499 0-.095 1.971-2.304 6.845-1.18 2.605-3.82 1.146-3.82 3.762v5.955c0 1.018.1 1.997 1.532 2.158C6.553 21.011 6.241 22 8.244 22h10.024a1.854 1.854 0 0 0 1.851-1.852c0-.424-.148-.81-.387-1.121.566-.318.955-.916.955-1.61 0-.423-.148-.809-.386-1.12.568-.317.958-.916.958-1.612 0-.505-.205-.963-.534-1.298.42-.34.695-.853.695-1.434z" fill="#FFDB5E"/>
    <path d="M14.789 13.805h4.78c.65 0 1.26-.348 1.592-.907a.486.486 0 0 0-.837-.496.882.882 0 0 1-.756.43h-4.894a.88.88 0 0 1 0-1.758h3.27a.486.486 0 0 0 0-.972h-3.27c-1.022 0-1.852.83-1.852 1.851 0 .57.264 1.074.67 1.414a1.844 1.844 0 0 0-.555 1.318c0 .571.265 1.077.673 1.416a1.844 1.844 0 0 0 .233 2.822 1.837 1.837 0 0 0-.474 1.225c0 1.02.831 1.851 1.852 1.851h3.047c.65 0 1.26-.347 1.593-.906a.486.486 0 0 0-.836-.497.886.886 0 0 1-.757.431H15.22a.88.88 0 0 1 0-1.759h3.615a1.86 1.86 0 0 0 1.592-.907.486.486 0 1 0-.835-.497.873.873 0 0 1-.757.432h-3.924a.88.88 0 0 1 0-1.76h4.495c.65 0 1.26-.347 1.592-.906a.486.486 0 0 0-.835-.497.874.874 0 0 1-.757.431h-4.618a.88.88 0 0 1 0-1.759z" fill="#EE9547"/>
</svg>
